!!!OTL: Zhuo yangren
!!!ARE: Asia, China,ÿHunan Yongshun
!! I, 522
!!!SCT: C2185
!!!YEM: Copyright 1995, estate of Helmut Schaffrath.
**kern
*ICvox
*Ivox
*M2/4
*k[f#c#]
*D:
{8b
8b
8dd
8b
=1
4dd
8b
8dd
=2
8ee
8ee
4r
=3
8.ee
16dd
4b
=4
4dd
4r}
=5
{8dd
8b
8dd
8r
=6
8a
8g
8a
8r
=7
8a
8g
8a
8g
=8
4.a
8ee
=9
4dd
4r}
=10
{8b
16ee
16ee
4b
=11
8.ee
16dd
8dd
16ee
16dd
=12
4b
8r
8dd
=13
4.b
8ee
=14
4dd
4r}
=15
{4.b
8dd
=16
8ee
8b
4r
=17
8.ee
16dd
8dd
8ee
=18
8dd
8b
4a}
=19
{8a
8a
8dd
8b
=20
4.a
8g
=21
2e
=22
8.ee
16dd
8dd
8ee
=23
8dd
8b
4a}
=24
{8a
8a
8dd
8b
=25
4.a
8g
=26
2e}
==
!!!AGN: Xiaodiao, Huadeng diao
!!!ONB: ESAC (Essen Associative Code) Database: SENGANSU
!!!AMT: simple duple
!!!AIN: vox
!!!EED: Helmut Schaffrath
!!!EEV: 1.0
*-
